X:1
T:Title
%%score ( 1 2 ) ( 3 4 )
L:1/8
Q:1/4=100
M:4/4
K:F
V:1 treble nm="Choir Aahs, Staff"
V:2 treble 
V:3 bass nm="Choir Aahs, Staff-1"
V:4 bass 
V:1
 [A,D]2 AG [A,F]2 [B,E]2 | [A,D]2 [A,^C]2 [A,D]2 [A,D]2 | [DF]2 FG [FA]2 B-[EB] | %3
w: By~Freylinghausen,~1704 * * * *|||
 [FA]2 [EG]2 [CF]4 | [Gc]2 [Fc]2 [FB]2 [CB]2 | [CA]2 [CA]2 [DG]2 [CG]2 | %6
w: |||
 [A,F]2 [DG]2 [DA]2 B,-[B,E] | [A,F]2 [A,E]2 [A,D]4 |] %8
w: ||
V:2
 z2 A,2 z4 | x8 | z2 D2 z2 .F2 | x8 | x8 | x8 | z4 z2 .D2 | x8 |] %8
V:3
 [D,F,]2 [^C,E,]2 D,2 [G,,G,]2 | [F,,A,]2 [A,,E,]2 [D,F,]2 [D,F,]2 | %2
 [D,A,]2 [B,,B,]2 [F,,C]2 [G,,B,]2 | C2 .C2 z4 | [E,G,]2 [F,A,]2 [D,A,]2 [E,G,]2 | %5
 F,2 [A,,F,]2 [B,,F,]2 [C,E,]2 | D,2 [G,,B,]2 [F,,A,]2 [G,,D,]2 | [A,,D,]2 [A,,^C,]2 [D,,F,]4 |] %8
V:4
 x8 | x8 | x8 | A,,B,,C,-[C,B,] [F,A,]4 | x8 | x8 | x8 | x8 |] %8

